src/scalable/devices/audio-headphones.svg

<?xml version="1.0" encoding="UTF-8" standalone="no"?>
<svg
   xmlns:dc="http://purl.org/dc/elements/1.1/"
   xmlns:cc="http://creativecommons.org/ns#"
   xmlns:rdf="http://www.w3.org/1999/02/22-rdf-syntax-ns#"
   xmlns:svg="http://www.w3.org/2000/svg"
   xmlns="http://www.w3.org/2000/svg"
   xmlns:sodipodi="http://sodipodi.sourceforge.net/DTD/sodipodi-0.dtd"
   xmlns:inkscape="http://www.inkscape.org/namespaces/inkscape"
   width="64"
   height="64"
   version="1"
   id="svg12"
   sodipodi:docname="audio-headphones.svg"
   inkscape:version="0.92.4 (5da689c313, 2019-01-14)">
  <metadata
     id="metadata18">
    <rdf:RDF>
      <cc:Work
         rdf:about="">
        <dc:format>image/svg+xml</dc:format>
        <dc:type
           rdf:resource="http://purl.org/dc/dcmitype/StillImage" />
      </cc:Work>
    </rdf:RDF>
  </metadata>
  <defs
     id="defs16">
    <clipPath
       clipPathUnits="userSpaceOnUse"
       id="clipPath904">
      <circle
         style="opacity:1;fill:#d86eb0;fill-opacity:1;stroke:none;stroke-width:0.49136904;stroke-miterlimit:4;stroke-dasharray:none;stroke-opacity:0.03921569;paint-order:stroke markers fill"
         id="circle906"
         cx="8.4666672"
         cy="288.53333"
         r="6.8791666" />
    </clipPath>
  </defs>
  <sodipodi:namedview
     pagecolor="#ffffff"
     bordercolor="#666666"
     borderopacity="1"
     objecttolerance="10"
     gridtolerance="10"
     guidetolerance="10"
     inkscape:pageopacity="0"
     inkscape:pageshadow="2"
     inkscape:window-width="1366"
     inkscape:window-height="708"
     id="namedview14"
     showgrid="false"
     inkscape:zoom="3.6875"
     inkscape:cx="-9.871535"
     inkscape:cy="6.5570943"
     inkscape:window-x="0"
     inkscape:window-y="30"
     inkscape:window-maximized="1"
     inkscape:current-layer="svg12" />
  <g
     id="audio-headphones_64"
     inkscape:label="#g7953">
    <rect
       ry="0.5"
       rx="0.5"
       y="0"
       x="0"
       height="64"
       width="64"
       id="rect4184"
       style="opacity:1;fill:none;fill-opacity:0.09661835;stroke:none;stroke-width:0.5;stroke-linecap:butt;stroke-linejoin:miter;stroke-miterlimit:4;stroke-dasharray:none;stroke-dashoffset:0;stroke-opacity:0.54901961" />
    <path
       id="rect4164-3"
       d="m 54.5,32.5 v 7.013672 C 52.456797,36.487432 49.084139,34.5 45.5,34.5 v 23 c 5.771376,0 11,-5.148724 11,-11.5 0,-0.509642 -0.04642,-1.007883 -0.111328,-1.5 H 56.5 v -12 z"
       style="opacity:1;fill:#4c5263;fill-opacity:1;stroke:#272a2f;stroke-width:1;stroke-linecap:butt;stroke-linejoin:miter;stroke-miterlimit:4;stroke-dasharray:none;stroke-dashoffset:0;stroke-opacity:0.78431373"
       inkscape:connector-curvature="0" />
    <path
       id="rect4164"
       d="m 7.5,32.5 v 12 H 7.6113281 C 7.5464165,44.992117 7.5,45.490358 7.5,46 c 0,6.351276 5.228625,11.5 11,11.5 v -23 c -3.584138,0 -6.956797,1.987432 -9,5.013672 V 32.5 Z"
       style="opacity:1;fill:#4c5263;fill-opacity:1;stroke:#272a2f;stroke-width:1;stroke-linecap:butt;stroke-linejoin:miter;stroke-miterlimit:4;stroke-dasharray:none;stroke-dashoffset:0;stroke-opacity:0.78431373"
       inkscape:connector-curvature="0" />
    <path
       sodipodi:nodetypes="scccccs"
       inkscape:connector-curvature="0"
       id="path4201"
       d="M 32.311,12 C 26.577839,11.916887 20.55441,15.137063 16.5,19.150688 L 19.21875,21.346 C 22.595332,17.930234 27.197008,16.005603 32,16.000297 c 4.804459,0.0027 9.408453,1.926022 12.787109,5.341797 L 47.5,19.150688 C 43.597782,15.287725 37.828953,12.079958 32.311,12 Z"
       style="opacity:1;fill:#6e768e;fill-opacity:1;stroke:none;stroke-width:1;stroke-linecap:butt;stroke-linejoin:miter;stroke-miterlimit:4;stroke-dasharray:none;stroke-dashoffset:0;stroke-opacity:0.78431373" />
    <path
       inkscape:connector-curvature="0"
       id="path4183-3-4"
       d="M 32,6.5 C 17.37038,6.5 5.5,18.370376 5.5,33 v 0.5 h 6 V 33 c 0,-11.32776 9.17224,-20.5 20.5,-20.5 11.32776,0 20.5,9.17224 20.5,20.5 v 0.5 h 6 V 33 C 58.5,18.370376 46.62962,6.5 32,6.5 Z"
       style="color:#000000;font-style:normal;font-variant:normal;font-weight:normal;font-stretch:normal;font-size:medium;line-height:normal;font-family:sans-serif;text-indent:0;text-align:start;text-decoration:none;text-decoration-line:none;text-decoration-style:solid;text-decoration-color:#000000;letter-spacing:normal;word-spacing:normal;text-transform:none;writing-mode:lr-tb;direction:ltr;baseline-shift:baseline;text-anchor:start;white-space:normal;clip-rule:nonzero;display:inline;overflow:visible;visibility:visible;opacity:1;isolation:auto;mix-blend-mode:normal;color-interpolation:sRGB;color-interpolation-filters:linearRGB;solid-color:#000000;solid-opacity:1;fill:#575e71;fill-opacity:1;fill-rule:nonzero;stroke:none;stroke-width:1;stroke-linecap:butt;stroke-linejoin:miter;stroke-miterlimit:4;stroke-dasharray:none;stroke-dashoffset:0;stroke-opacity:1;color-rendering:auto;image-rendering:auto;shape-rendering:auto;text-rendering:auto;enable-background:accumulate" />
    <path
       inkscape:connector-curvature="0"
       id="path4183-25"
       d="M 32,6 C 17.100156,6 5,18.100156 5,33 v 1 h 7 v -1 c 0,-11.05754 8.94246,-20 20,-20 11.05754,0 20,8.94246 20,20 v 1 h 7 V 33 C 59,18.100156 46.89984,6 32,6 Z m 0,1 A 26,26 0 0 1 58,33 H 53 A 21,21 0 0 0 32,12 21,21 0 0 0 11,33 H 6 A 26,26 0 0 1 32,7 Z"
       style="color:#000000;font-style:normal;font-variant:normal;font-weight:normal;font-stretch:normal;font-size:medium;line-height:normal;font-family:sans-serif;text-indent:0;text-align:start;text-decoration:none;text-decoration-line:none;text-decoration-style:solid;text-decoration-color:#000000;letter-spacing:normal;word-spacing:normal;text-transform:none;writing-mode:lr-tb;direction:ltr;baseline-shift:baseline;text-anchor:start;white-space:normal;clip-rule:nonzero;display:inline;overflow:visible;visibility:visible;opacity:1;isolation:auto;mix-blend-mode:normal;color-interpolation:sRGB;color-interpolation-filters:linearRGB;solid-color:#000000;solid-opacity:1;fill:#242832;fill-opacity:0.78431373;fill-rule:nonzero;stroke:none;stroke-width:2;stroke-linecap:butt;stroke-linejoin:miter;stroke-miterlimit:4;stroke-dasharray:none;stroke-dashoffset:0;stroke-opacity:1;color-rendering:auto;image-rendering:auto;shape-rendering:auto;text-rendering:auto;enable-background:accumulate" />
    <rect
       rx="2"
       ry="1"
       y="33"
       x="18"
       height="26"
       width="4"
       id="rect4212"
       style="opacity:1;fill:#6e768e;fill-opacity:1;stroke:none;stroke-width:1;stroke-linecap:butt;stroke-linejoin:miter;stroke-miterlimit:4;stroke-dasharray:none;stroke-dashoffset:0;stroke-opacity:0.78431373" />
    <rect
       rx="2"
       ry="1"
       y="33"
       x="42"
       height="26"
       width="4"
       id="rect4212-6"
       style="opacity:1;fill:#6e768e;fill-opacity:1;stroke:none;stroke-width:1;stroke-linecap:butt;stroke-linejoin:miter;stroke-miterlimit:4;stroke-dasharray:none;stroke-dashoffset:0;stroke-opacity:0.78431373" />
  </g>
</svg>

<svg xmlns="http://www.w3.org/2000/svg" width="64" height="64" version="1"><rect ry=".5" rx=".5" height="64" width="64" fill="none"/><path d="M54.5 32.5v7.014c-2.043-3.027-5.416-5.014-9-5.014v23c5.771 0 11-5.149 11-11.5 0-.51-.046-1.008-.111-1.5h.111v-12zm-47 0v12h.111c-.065.492-.111.99-.111 1.5 0 6.351 5.229 11.5 11 11.5v-23c-3.584 0-6.957 1.987-9 5.014V32.5z" fill="#4c5263" stroke="#272a2f" stroke-opacity=".784"/><path d="M32.311 12c-5.733-.083-11.757 3.137-15.811 7.15l2.719 2.196A18 18 0 0 1 32 16a18 18 0 0 1 12.787 5.342l2.713-2.191C43.598 15.288 37.829 12.08 32.311 12z" fill="#6e768e"/><path d="M32 6.5C17.37 6.5 5.5 18.37 5.5 33v.5h6V33c0-11.328 9.172-20.5 20.5-20.5S52.5 21.672 52.5 33v.5h6V33C58.5 18.37 46.63 6.5 32 6.5z" style="line-height:normal;text-indent:0;text-align:start;text-decoration-line:none;text-decoration-style:solid;text-decoration-color:#000;text-transform:none;white-space:normal;isolation:auto;mix-blend-mode:normal;solid-color:#000;solid-opacity:1" color="#000" font-weight="400" font-family="sans-serif" overflow="visible" fill="#575e71"/><path d="M32 6C17.1 6 5 18.1 5 33v1h7v-1c0-11.058 8.942-20 20-20s20 8.942 20 20v1h7v-1C59 18.1 46.9 6 32 6zm0 1a26 26 0 0 1 26 26h-5a21 21 0 0 0-21-21 21 21 0 0 0-21 21H6A26 26 0 0 1 32 7z" style="line-height:normal;text-indent:0;text-align:start;text-decoration-line:none;text-decoration-style:solid;text-decoration-color:#000;text-transform:none;white-space:normal;isolation:auto;mix-blend-mode:normal;solid-color:#000;solid-opacity:1" color="#000" font-weight="400" font-family="sans-serif" overflow="visible" fill="#242832" fill-opacity=".784"/><rect rx="2" ry="1" y="33" x="18" height="26" width="4" fill="#6e768e"/><rect rx="2" ry="1" y="33" x="42" height="26" width="4" fill="#6e768e"/></svg>
